X:17
T:R\'ois\'in Dubh
R:slow air
H:Also played in D, #18
Z:id:hn-slowair-17
M:3/4
L:1/8
Q:1/4=80
K:G
dB/<d/ | G4 A/G/B/d/ | a4 ga | b4 a2 | g4 e2 | d4 B2 | A4 GA | B4 A2 | HG4 ||
ga/b/ | c'3bag | b2 a2 ge | f d3 e/d/B/d/ | a4 ga | b4 a2 | g4 ||
ga/b/ | c'3bag | b2 a2 ge | f d3 e/d/B/d/ | a4 ga | b4 a2 | g4 ||
dB/<d/ | G4 A/G/B/d/ | a4 ga | b4 a2 | g4 e2 | d4 B2 | A4 GA | B4 A2 | HG4 ||

